public/cloud-icons/azure/management/policy-initiative.svg

<?xml version="1.0" encoding="UTF-8" standalone="no"?>
<!-- Generated by Microsoft Visio, SVG Export Policy Initiative.svg Page-1 -->

<svg
   xmlns:dc="http://purl.org/dc/elements/1.1/"
   xmlns:cc="http://creativecommons.org/ns#"
   xmlns:rdf="http://www.w3.org/1999/02/22-rdf-syntax-ns#"
   xmlns:svg="http://www.w3.org/2000/svg"
   xmlns="http://www.w3.org/2000/svg"
   xmlns:sodipodi="http://sodipodi.sourceforge.net/DTD/sodipodi-0.dtd"
   xmlns:inkscape="http://www.inkscape.org/namespaces/inkscape"
   width="0.78739738in"
   height="0.78736919in"
   viewBox="0 0 56.692679 56.690869"
   xml:space="preserve"
   class="st6"
   version="1.1"
   id="svg54"
   sodipodi:docname="Policy Initiative.svg"
   style="font-size:12px;overflow:visible;color-interpolation-filters:sRGB;fill:none;fill-rule:evenodd;stroke-linecap:square;stroke-miterlimit:3"
   inkscape:version="0.92.5 (2060ec1f9f, 2020-04-08)"><metadata
   id="metadata60"><rdf:RDF><cc:Work
       rdf:about=""><dc:format>image/svg+xml</dc:format><dc:type
         rdf:resource="http://purl.org/dc/dcmitype/StillImage" /></cc:Work></rdf:RDF></metadata><defs
   id="defs58" /><sodipodi:namedview
   pagecolor="#ffffff"
   bordercolor="#666666"
   borderopacity="1"
   objecttolerance="10"
   gridtolerance="10"
   guidetolerance="10"
   inkscape:pageopacity="0"
   inkscape:pageshadow="2"
   inkscape:window-width="640"
   inkscape:window-height="480"
   id="namedview56"
   showgrid="false"
   inkscape:zoom="1.7193066"
   inkscape:cx="37.795072"
   inkscape:cy="23.279613"
   inkscape:window-x="0"
   inkscape:window-y="0"
   inkscape:window-maximized="0"
   inkscape:current-layer="svg54" />
	<style
   type="text/css"
   id="style2">
	<![CDATA[
		.st1 {fill:#804998;stroke:none;stroke-linecap:butt;stroke-width:12.24}
		.st2 {fill:#59b4d9;stroke:none;stroke-linecap:butt;stroke-width:12.24}
		.st3 {fill:#ffffff;fill-opacity:0.8;stroke:none;stroke-linecap:butt;stroke-width:12.24}
		.st4 {fill:#3999c6;fill-opacity:0.8;stroke:none;stroke-linecap:butt;stroke-width:12.24}
		.st5 {fill:#ffffff;fill-opacity:0.2;stroke:none;stroke-linecap:butt;stroke-width:12.24}
		.st6 {fill:none;fill-rule:evenodd;font-size:12px;overflow:visible;stroke-linecap:square;stroke-miterlimit:3}
	]]>
	</style>

	<g
   id="g52"
   transform="translate(-12.24016,-12.24343)">
		<title
   id="title4">Page-1</title>
		<g
   id="group13183-1"
   transform="translate(12.24,-34.0157)">
			<title
   id="title6">Policy Initiative.13183</title>
			<g
   id="group13184-2">
				<title
   id="title8">Sheet.13184</title>
				<g
   id="shape13185-3"
   transform="translate(0,-19.2756)">
					<title
   id="title10">Sheet.13185</title>
					<path
   d="m 6.8,96.15 -6.8,6.8 h 56.69 l -6.8,-6.8 z"
   class="st1"
   id="path12"
   inkscape:connector-curvature="0"
   style="fill:#804998;stroke:none;stroke-width:12.23999977;stroke-linecap:butt" />
				</g>
				<g
   id="shape13186-5"
   transform="translate(6.80315,-3.40157)">
					<title
   id="title15">Sheet.13186</title>
					<path
   d="M 35.17,63.04 29.78,57.59 27.53,55.33 H 0 v 47.62 H 37.42 V 65.3 Z"
   class="st2"
   id="path17"
   inkscape:connector-curvature="0"
   style="fill:#59b4d9;stroke:none;stroke-width:12.23999977;stroke-linecap:butt" />
				</g>
				<g
   id="shape13187-7"
   transform="translate(9.05046,-5.66929)">
					<title
   id="title20">Sheet.13187</title>
					<path
   d="M 25.06,59.86 H 0 v 43.09 H 32.92 V 67.8 h -7.86 z"
   class="st3"
   id="path22"
   inkscape:connector-curvature="0"
   style="fill:#ffffff;fill-opacity:0.8;stroke:none;stroke-width:12.23999977;stroke-linecap:butt" />
				</g>
				<g
   id="shape13188-9"
   transform="translate(11.3386,-9.07087)">
					<title
   id="title25">Sheet.13188</title>
					<path
   d="M 36.3,63.04 30.91,57.59 28.66,55.33 H 0 v 47.62 H 38.55 V 65.3 Z"
   class="st2"
   id="path27"
   inkscape:connector-curvature="0"
   style="fill:#59b4d9;stroke:none;stroke-width:12.23999977;stroke-linecap:butt" />
				</g>
				<g
   id="shape13189-11"
   transform="translate(13.5859,-11.3386)">
					<title
   id="title30">Sheet.13189</title>
					<path
   d="M 26.19,59.86 H 0 v 43.09 H 34.06 V 67.8 h -7.87 z"
   class="st3"
   id="path32"
   inkscape:connector-curvature="0"
   style="fill:#ffffff;fill-opacity:0.8;stroke:none;stroke-width:12.23999977;stroke-linecap:butt" />
				</g>
				<g
   id="shape13190-13"
   transform="translate(20.4094,-18.2835)">
					<title
   id="title35">Sheet.13190</title>
					<path
   d="m 0,85.45 v 11.49 c 0,0.09 0.05,0.17 0.13,0.22 l 9.95,5.74 c 0.08,0.05 0.17,0.05 0.25,0 l 9.95,-5.74 a 0.25285,0.25285 -180 0 0 0.126992,-0.221102 L 20.41,85.45 A 0.256252,0.256252 -180 0 0 20.283008,85.228898 L 10.33,79.48 a 0.256252,0.256252 -180 0 0 -0.255118,0 L 0.13,85.23 a 0.255118,0.255118 -180 0 0 -0.128126,0.221102 z"
   class="st4"
   id="path37"
   inkscape:connector-curvature="0"
   style="fill:#3999c6;fill-opacity:0.8;stroke:none;stroke-width:12.23999977;stroke-linecap:butt" />
				</g>
				<g
   id="shape13191-15">
					<title
   id="title40">Sheet.13191</title>
					<rect
   x="0"
   y="83.673103"
   width="56.692902"
   height="19.2756"
   class="st1"
   id="rect42"
   style="fill:#804998;stroke:none;stroke-width:12.23999977;stroke-linecap:butt" />
				</g>
				<g
   id="shape13192-17">
					<title
   id="title45">Sheet.13192</title>
					<path
   d="m 0,83.67 v 19.28 H 20.41 L 35.15,83.67 Z"
   class="st5"
   id="path47"
   inkscape:connector-curvature="0"
   style="fill:#ffffff;fill-opacity:0.2;stroke:none;stroke-width:12.23999977;stroke-linecap:butt" />
				</g>
			</g>
		</g>
	</g>
</svg>

<svg xmlns="http://www.w3.org/2000/svg" xml:space="preserve" width="75.59" height="75.587" style="font-size:12px;overflow:visible;color-interpolation-filters:sRGB;fill-rule:evenodd;stroke-linecap:square;stroke-miterlimit:3" viewBox="0 0 56.693 56.691"><g transform="translate(-12.24 -12.243)"><title>Page-1</title><g transform="translate(12.24 -34.016)"><title>Policy Initiative.13183</title><title>Sheet.13184</title><g transform="translate(0 -19.276)"><title>Sheet.13185</title><path d="m6.8 96.15-6.8 6.8h56.69l-6.8-6.8z" style="fill:#804998;stroke:none;stroke-width:12.23999977;stroke-linecap:butt"/></g><g transform="translate(6.803 -3.402)"><title>Sheet.13186</title><path d="m35.17 63.04-5.39-5.45-2.25-2.26H0v47.62h37.42V65.3Z" style="fill:#59b4d9;stroke:none;stroke-width:12.23999977;stroke-linecap:butt"/></g><g transform="translate(9.05 -5.67)"><title>Sheet.13187</title><path d="M25.06 59.86H0v43.09h32.92V67.8h-7.86z" style="fill:#fff;fill-opacity:.8;stroke:none;stroke-width:12.23999977;stroke-linecap:butt"/></g><g transform="translate(11.339 -9.07)"><title>Sheet.13188</title><path d="m36.3 63.04-5.39-5.45-2.25-2.26H0v47.62h38.55V65.3Z" style="fill:#59b4d9;stroke:none;stroke-width:12.23999977;stroke-linecap:butt"/></g><g transform="translate(13.586 -11.339)"><title>Sheet.13189</title><path d="M26.19 59.86H0v43.09h34.06V67.8h-7.87z" style="fill:#fff;fill-opacity:.8;stroke:none;stroke-width:12.23999977;stroke-linecap:butt"/></g><g transform="translate(20.41 -18.284)"><title>Sheet.13190</title><path d="M0 85.45v11.49c0 .09.05.17.13.22l9.95 5.74c.08.05.17.05.25 0l9.95-5.74a.25.25-180 0 0 .127-.221l.003-11.489a.26.26-180 0 0-.127-.221L10.33 79.48a.26.26-180 0 0-.255 0L.13 85.23a.26.26-180 0 0-.128.221z" style="fill:#3999c6;fill-opacity:.8;stroke:none;stroke-width:12.23999977;stroke-linecap:butt"/></g><title>Sheet.13191</title><path d="M0 83.673h56.693v19.276H0z" style="fill:#804998;stroke:none;stroke-width:12.23999977;stroke-linecap:butt"/><title>Sheet.13192</title><path d="M0 83.67v19.28h20.41l14.74-19.28Z" style="fill:#fff;fill-opacity:.2;stroke:none;stroke-width:12.23999977;stroke-linecap:butt"/></g></g></svg>
